X:5
T:Up To The Line
C:Michael Gray and Bruce Gandy
B:William Livingstone Volume 1
H:
O:Kevin Fraser
Z:Kevin Fraser
Q:1/4=90
K:HP
M:12/8
L:1/8
R:March
U: R = ///
U: r = //
U: V = !accent!
V:M gstem=up stem=down name="Melody" sname="Melody" 
V:H gstem=up stem=down name="Harmony" sname="Harmony"
V:C gstem=up stem=down name="C-Harmony" sname="C-Harmony"
V:S gstem=up stem=down clef=none dyn=up name="Snare" sname="Snare"
V:B gstem=up stem=down clef=none dyn=up name="Bass" sname="Bass"
V:T gstem=up stem=down clef=none dyn=up name="Tenor" sname="Tenor"
V:BB gstem=up stem=down name="Brass Bass" sname="Bass" transpose=-1  octave=-2 clef=bass
V:BC gstem=up stem=down name="Brass Chord" sname="ABCD-D" transpose=-1
V:BD gstem=up stem=down name="Brass Chord 2" sname="ABCD-B" transpose=-1
V:P gstem=up stem=down name="Piano" sname="Piano" transpose=0 octave=-1
I:MIDI=program 110
%%MIDI gracedivider 4
% %score {M BC BD BB}
% %MIDI program 109 #bagpipes
%%MIDI vol 100
[V:M] A | {g}f2{e}f {g}e>c{d}A {Gdc}d2{c}d {g}c>B{d}A | {g}B2d {g}B>d{e}A {GdG}B3-B2d | {gef}e2{A}e {g}e<fd {gcd}c2e {g}B<{d}c{e}B | {GdG}c3 {gde}d3 {gef}e2a g>e{g}c | 
w: 
[V:M]     {g}f2{e}f a>fd {g}B2f {a}g>e{g}c | {Gdc}d2f {g}B<d{e}B {G}A3 {GAG}A2d | {g}B2{GdGe}G {g}G>Bd {g}c2{GdGe}A {g}A>{d}ce | {gf}g2{AGAG}A {g}e<f{g}e {Gdc}d3-d2} x | 
w:
[V:M] {gf}g| a2{AGAG}A a>f{g}d g>{a}B{G}B g>e{g}c  | {Gdc}d2f {g}B<d{e}B {G}A3 {GAG}A2d | {a}g2{GdG}g {a}B<dg {afg}f>d{e}B A>df | {g}e2{AGAG}A {g}f2{AGAG}A{gef}e3{A}e>fg | 
w: 
[V:M]     a2{AGAG}A a>f{g}d g>{a}B{G}B g>e{g}c  | {Gdc}d2f {g}B<d{e}B {G}A3 {GAG}A2d | {g}B2{GdGe}G {g}G>Bd {g}c2{GdGe}A {g}A>{d}ce | {gf}g2{AGAG}A {g}e<f{g}e {Gdc}d3 {gdc}d2} x | 
w:


